X:1
T:James Byrne's
M:9/8
K:D
L:1/8
L:1/8
A | "D"dfa adf dcd | "G"Bcd "A7"efd cBA | "D"dfa adf dcd |1)
"G"Bcd "A7"edc "D"d3 :|2) "G"Bcd "A7"edc "D"def |\
"A7"ecA ABA ecA | "D"d2e fef agf | "A7"ecA ABA ecA |1)
"D"d2e "A7"fdc "D"d2f :|2) "D"d2e "A7"fdc "D"d3|
